X:1
T:Ein veste Burgk ist unser Gott
T:Hans Leo Hassler
T:Ein veste Burgk ist unser Gott
C:Hans Leo Hassler
%%score [ 1 2 3 4 ]
L:1/8
Q:1/4=240
M:4/2
K:F
V:1 treble nm="Soprano" snm="S"
V:2 treble nm="Alto" snm="A"
V:3 treble-8 nm="Tenor" snm="T"
V:4 bass nm="Bass" snm="B"
V:1
"^Deus noster refugium" z4 f4 f8 | f8 c6 d2 | e4 f8 e4 | d4 d4 c8 | z4 f4 e8 | d8 c8 | d4 B8 A4 | %7
w: Ein ve-|ste Burgk _|ist un- *|* ser Gott|ein gu-|te Wehr|und Waf- *|
w: Er hilfft|uns frey _|auß al- *|* ler Noth,|die uns|jetzt hat|be- trof- *|
 G8 F8 :| z4 F4 A6 B2 | c4 d8 c4- | c4 =B4 c8 | F8 c8 | d8 e8 | f8 e8 | f8 e8 | d8 c8 | d4 d8 c4 | %17
w: * fen.|Der alt _|_ _ bö-|* se Feind,|mit Ernst|ers jetzt|meint. Groß|Macht und|vil List|sein grau- sam|
w: * fen.||||||||||
 d6 c2 B4 B4 | A8 f8 | e8 d8 | c8 d4 B4- | B4 A4 G8 | F16 |] %23
w: Rü- * * stung|ist. Auf|Erd ist|nicht seins Glei-||chen.|
w: ||||||
V:2
 z4 A4 A8 | A8 A8 | G4 A8 G2 F2 | G4 G4 E8 | z4 A4 A8 | F8 A8 | A4 G6 F2 F4- | F4 E4 F8 :| %8
w: Ein ve-|ste Burgk|ist un- * *|* ser Gott|ein gu-|te Wehr|und Waf- * *|* * fen.|
w: Er hilfft|uns frey|auß al- * *|* ler Noth,|die uns|jetzt hat|be- trof- * *|* * fen.|
 z4 D4 F8 | E4 A4 G8 | A4 G4 G8 | C8 G8 | F8 G8 | A8 G8 | B8 G8 | G8 E8 | D4 B8 A4 | B6 A2 F4 G4 | %18
w: Der alt|_ _ bö-|* se Feind,|mit Ernst|ers jetzt|meint. Groß|Macht und|vil List|sein grau- sam|Rü- * * stung|
w: ||||||||||
 F8 A8 | A8 F8 | A8 A4 G4- | G4 F8 E4 | F16 |] %23
w: ist. Auf|Erd ist|nicht seins Glei-||chen.|
w: |||||
V:3
 z4 c4 c8 | d8 e8- | e4 c8 c4- | c4 =B4 c8 | z4 d4 ^c8 | d8 e8 | f4 _e6 d2 c2 B2 | c8 A8 :| %8
w: Ein ve-|ste Burgk|_ ist un-|* ser Gott|ein gu-|te Wehr|und Waf- * * *|* fen.|
w: Er hilfft|uns frey|_ auß al-|* ler Noth,|die uns|jetzt hat|be- trof- * * *|* fen.|
 z4 d4 c8- | c4 f4 e8 | d8 e8 | A8 G8 | A8 c8 | c8 e8 | d8 c8 | =B8 c8 | f4 f8 f4 | f6 e2 d4 G4 | %18
w: Der alt|_ _ bö-|se Feind,|mit Ernst|ers jetzt|meint. Groß|Macht und|vil List|sein grau- sam|Rü- * * stung|
w: ||||||||||
 c8 d8 | ^c8 d8 | f8 f4 _e4- | e2 d2 c2 B2 c8 | A16 |] %23
w: ist. Auf|Erd ist|nicht seins Glei-||chen.|
w: |||||
V:4
 z4 F,4 F,8 | F,8 A,6 B,2 | C4 F,8 C,4 | G,4 G,4 C,8 | z4 D,4 A,8 | B,8 A,8 | D,4 _E,8 F,4 | %7
w: Ein ve-|ste Burgk _|_ _ ist|un- ser Gott|ein gu-|te Wehr|und Waf- *|
w: Er hilfft|uns frey _|_ _ auß|al- ler Noth,|die uns|jetzt hat|be- trof- *|
 C,8 F,8 :| z4 B,,4 F,6 G,2 | A,4 G,2 F,2 G,4 E,4 | F,4 G,4 C,8 | F,8 E,8 | D,8 C,8 | F,8 C8 | %14
w: * fen.|Der alt _|_ _ _ _ bö-|* se Feind,|mit Ernst|ers jetzt|meint. Groß|
w: * fen.|||||||
 B,8 C8 | G,8 C,8 | B,,4 B,8 F,4 | B,,6 C,2 D,4 E,4 | F,8 D,8 | A,8 B,8 | F,8 D,4 _E,4- | %21
w: Macht und|vil List|sein grau- sam|Rü- * * stung|ist. Auf|Erd ist|nicht seins Glei-|
w: |||||||
 E,4 F,4 C,8 | F,16 |] %23
w: |chen.|
w: ||

